sources/images/svg/i-6.svg

<?xml version="1.0" encoding="UTF-8" standalone="no"?>
<svg width="39px" height="39px" viewBox="0 0 39 39" version="1.1" xmlns="http://www.w3.org/2000/svg" xmlns:xlink="http://www.w3.org/1999/xlink" xmlns:sketch="http://www.bohemiancoding.com/sketch/ns">
    <!-- Generator: Sketch 3.0.4 (8053) - http://www.bohemiancoding.com/sketch -->
    <title>i-6</title>
    <desc>Created with Sketch.</desc>
    <defs></defs>
    <g id="Page-1" stroke="none" stroke-width="1" fill="none" fill-rule="evenodd" sketch:type="MSPage">
        <g id="i-6" sketch:type="MSLayerGroup" fill="#63B1FF">
            <path d="M19.4080299,3.53677612 C10.6237164,3.53677612 3.47740299,10.6830896 3.47740299,19.467403 C3.47740299,28.2517164 10.6237164,35.3980299 19.4080299,35.3980299 C28.1917612,35.3980299 35.3386567,28.2517164 35.3386567,19.467403 C35.3386567,10.6830896 28.1917612,3.53677612 19.4080299,3.53677612 L19.4080299,3.53677612 Z M19.4080299,33.2530299 C11.8065224,33.2530299 5.62240299,27.0689104 5.62240299,19.467403 C5.62240299,11.8658955 11.8065224,5.68177612 19.4080299,5.68177612 C27.0089552,5.68177612 33.1930746,11.8658955 33.1930746,19.467403 C33.1930746,27.0689104 27.0089552,33.2530299 19.4080299,33.2530299 L19.4080299,33.2530299 Z" id="Fill-1" sketch:type="MSShapeGroup"></path>
            <path d="M19.4103582,38.8370149 C8.7301791,38.8370149 0.0413283582,30.1475821 0.0413283582,19.467403 C0.0413283582,8.78722388 8.7301791,0.0983731343 19.4103582,0.0983731343 C30.0905373,0.0983731343 38.7799701,8.78722388 38.7799701,19.467403 C38.7799701,30.1475821 30.0905373,38.8370149 19.4103582,38.8370149 L19.4103582,38.8370149 Z M19.4103582,2.25210448 C9.91764179,2.25210448 2.1950597,9.97468657 2.1950597,19.467403 C2.1950597,28.9601194 9.91764179,36.6827015 19.4103582,36.6827015 C28.9030746,36.6827015 36.6262388,28.9601194 36.6262388,19.467403 C36.6262388,9.97468657 28.9030746,2.25210448 19.4103582,2.25210448 L19.4103582,2.25210448 Z" id="Fill-2" sketch:type="MSShapeGroup"></path>
            <path d="M19.4080299,15.0743731 C16.9853731,15.0743731 15.015,17.0453284 15.015,19.467403 C15.015,21.8894776 16.9853731,23.8604328 19.4080299,23.8604328 C21.8301045,23.8604328 23.8010597,21.8894776 23.8010597,19.467403 C23.8010597,17.0453284 21.8301045,15.0743731 19.4080299,15.0743731 L19.4080299,15.0743731 Z M19.4080299,21.7154328 C18.1681791,21.7154328 17.16,20.7072537 17.16,19.467403 C17.16,18.2275522 18.1681791,17.2193731 19.4080299,17.2193731 C20.6472985,17.2193731 21.6560597,18.2275522 21.6560597,19.467403 C21.6560597,20.7072537 20.6472985,21.7154328 19.4080299,21.7154328 L19.4080299,21.7154328 Z" id="Fill-3" sketch:type="MSShapeGroup"></path>
            <path d="M22.7835672,18.4772687 C22.8761194,18.791597 22.9279254,19.1239701 22.9279254,19.467403 C22.9279254,19.8114179 22.8761194,20.1426269 22.7835672,20.4569552 L34.6878806,20.4569552 L34.6878806,18.4772687 L22.7835672,18.4772687 L22.7835672,18.4772687 Z M7.90302985,9.36291045 L16.3200448,17.7799254 C16.6436866,17.1908507 17.1308955,16.7036418 17.7199701,16.38 L9.30295522,7.96298507 L7.90302985,9.36291045 L7.90302985,9.36291045 Z M15.8881343,19.467403 C15.8881343,19.1239701 15.9399403,18.791597 16.0324925,18.4772687 L4.1281791,18.4772687 L4.1281791,20.4569552 L16.0324925,20.4569552 C15.9399403,20.1426269 15.8881343,19.8114179 15.8881343,19.467403 L15.8881343,19.467403 Z M22.4954328,17.7793433 L30.9118657,9.36291045 L29.5125224,7.96298507 L21.0955075,16.38 C21.6845821,16.7030597 22.171791,17.1902687 22.4954328,17.7793433 L22.4954328,17.7793433 Z M16.3200448,21.1548806 L7.90302985,29.5718955 L9.30295522,30.9718209 L17.7199701,22.554806 C17.1308955,22.2311642 16.6436866,21.7439552 16.3200448,21.1548806 L16.3200448,21.1548806 Z M21.0955075,22.554806 L29.5119403,30.9718209 L30.9118657,29.5724776 L22.4954328,21.1554627 C22.171791,21.7445373 21.6845821,22.2317463 21.0955075,22.554806 L21.0955075,22.554806 Z M18.4178955,16.0918657 C18.7322239,15.9993134 19.0640149,15.9475075 19.4080299,15.9475075 C19.7520448,15.9475075 20.0832537,15.9993134 20.3975821,16.0918657 L20.3975821,4.18755224 L18.4178955,4.18755224 L18.4178955,16.0918657 L18.4178955,16.0918657 Z M18.4178955,22.8429403 L18.4178955,34.7472537 L20.3975821,34.7472537 L20.3975821,22.8435224 C20.0832537,22.9354925 19.7520448,22.9872985 19.4080299,22.9872985 C19.0640149,22.9872985 18.7322239,22.9354925 18.4178955,22.8429403 L18.4178955,22.8429403 Z" id="Fill-4" sketch:type="MSShapeGroup"></path>
        </g>
    </g>
</svg>

<svg width="39" height="39" viewBox="0 0 39 39" xmlns="http://www.w3.org/2000/svg"><g id="i-6" fill="#63B1FF" fill-rule="evenodd"><path d="M19.408 3.537c-8.784 0-15.93 7.146-15.93 15.93 0 8.785 7.146 15.93 15.93 15.93 8.784 0 15.93-7.145 15.93-15.93 0-8.784-7.146-15.93-15.93-15.93zm0 29.716c-7.6 0-13.786-6.184-13.786-13.786 0-7.6 6.185-13.785 13.786-13.785 7.6 0 13.785 6.184 13.785 13.785 0 7.602-6.184 13.786-13.785 13.786z" id="Fill-1"/><path d="M19.41 38.837c-10.68 0-19.37-8.69-19.37-19.37C.04 8.787 8.73.097 19.41.097c10.68 0 19.37 8.69 19.37 19.37 0 10.68-8.69 19.37-19.37 19.37zm0-36.585c-9.492 0-17.215 7.723-17.215 17.215 0 9.493 7.723 17.216 17.215 17.216 9.493 0 17.216-7.723 17.216-17.216 0-9.492-7.723-17.215-17.216-17.215z" id="Fill-2"/><path d="M19.408 15.074c-2.423 0-4.393 1.97-4.393 4.393 0 2.422 1.97 4.393 4.393 4.393 2.422 0 4.393-1.97 4.393-4.393 0-2.422-1.97-4.393-4.39-4.393zm0 6.64c-1.24 0-2.248-1.007-2.248-2.247s1.008-2.248 2.248-2.248c1.24 0 2.248 1.007 2.248 2.246 0 1.24-1.01 2.248-2.248 2.248z" id="Fill-3"/><path d="M22.784 18.477c.092.315.144.647.144.99 0 .344-.052.676-.144.99h11.904v-1.98H22.784zM7.904 9.363l8.416 8.417c.324-.59.81-1.076 1.4-1.4L9.303 7.963l-1.4 1.4zm7.984 10.104c0-.343.052-.675.144-.99H4.128v1.98h11.904c-.092-.314-.144-.646-.144-.99zm6.607-1.688l8.417-8.418-1.4-1.4-8.416 8.417c.59.322 1.076.81 1.4 1.4zm-6.175 3.374L7.903 29.57l1.4 1.4 8.417-8.416c-.59-.324-1.076-.81-1.4-1.4zm4.776 1.4l8.416 8.417 1.4-1.4-8.417-8.416c-.323.59-.81 1.077-1.4 1.4zm-2.678-6.463c.314-.092.646-.143.99-.143s.675.05.99.144V4.19h-1.98v11.904zm0 6.75v11.906h1.98V22.844c-.315.09-.646.143-.99.143s-.676-.052-.99-.144z" id="Fill-4"/></g></svg>
